Papirus/22x22/apps/double-action-boogaloo.svg

<svg width="22" height="22" version="1.1" xmlns="http://www.w3.org/2000/svg">
 <rect x="1" y="1.5" width="20" height="20" rx="1" ry="1" style="opacity:.2"/>
 <rect x="1" y="1" width="20" height="20" rx="1" ry="1" style="fill:#4f4f4f"/>
 <path d="m2 1c-0.554 0-1 0.446-1 1v0.5c0-0.554 0.446-1 1-1h18c0.554 0 1 0.446 1 1v-0.5c0-0.554-0.446-1-1-1h-18z" style="fill:#ffffff;opacity:.1"/>
 <path d="m2 2.5v8h3v-5h2v5h3v-6c0-2-2-2-2-2zm0 10v8h6s2 0 2-2v-6h-3v5h-2v-5z" style="opacity:.2"/>
 <path d="m2 2v8h3v-5h2v5h3v-6c0-2-2-2-2-2h-6zm0 10v8h6s2 0 2-2v-6h-3v5h-2v-5h-3z" style="fill:#edd20c"/>
 <path d="m11 1.5v9h2.111328l0.888672-8h4l0.888672 8h2.111328v-8c0-0.554-0.446-1-1-1h-9zm5 5-0.285156 4h0.570312l-0.285156-4zm-5 6v7.5h1.054688l0.833984-7.5h-1.888672zm4.570312 0-0.142578 2h1.144532l-0.142578-2h-0.859376zm3.541016 0 0.833984 7.5h1.054688v-7.5h-1.888672zm-3.896484 5-0.179688 2.5h1.929688l-0.179688-2.5h-1.570312z" style="opacity:.2"/>
 <path d="m11 1v9h2.111328l0.888672-8h4l0.888672 8h2.111328v-8c0-0.554-0.446-1-1-1h-9zm5 5-0.285156 4h0.570312l-0.285156-4zm-5 6v9h9c0.554 0 1-0.446 1-1v-8h-1.888672l0.888672 8h-3l-0.214844-3h-1.570312l-0.214844 3h-3l0.888672-8h-1.888672zm4.570312 0-0.142578 2h1.144532l-0.142578-2h-0.859376z" style="fill:#e4e4e4"/>
 <path d="m11 1v0.5h9c0.554 0 1 0.446 1 1v-0.5c0-0.554-0.446-1-1-1h-9zm5 5-0.285156 4h0.035156l0.25-3.5 0.25 3.5h0.035156l-0.285156-4zm-5 6v0.5h1.833984l0.054688-0.5h-1.888672zm4.570312 0-0.142578 2h0.035157l0.107421-1.5h0.859376l0.107421 1.5h0.035157l-0.142578-2h-0.859376zm3.541016 0 0.054688 0.5h1.833984v-0.5h-1.888672zm-3.896484 5-0.214844 3h-2.945312l-0.054688 0.5h3l0.214844-3h1.570312l0.214844 3h3l-0.054688-0.5h-2.945312l-0.214844-3h-1.570312z" style="fill:#ffffff;opacity:.2"/>
 <path d="m2 2v0.5h6s2 0 2 2v-0.5c0-2-2-2-2-2h-6zm0 10v0.5h3v-0.5h-3zm5 0v0.5h3v-0.5h-3zm-2 5v0.5h2v-0.5h-2z" style="fill:#ffffff;opacity:.2"/>
</svg>

<svg xmlns="http://www.w3.org/2000/svg" width="22" height="22" version="1.1">
 <rect style="opacity:0.2" width="20" height="20" x="1" y="1.5" rx="1" ry="1"/>
 <path style="fill:#4f4f4f" d="m 2,1 h 8.99115 l 7.194691,0.4867257 c 0.552736,0.037393 0.951319,0.9057297 1.088495,1.4424778 L 21,9.681416 v 2.477876 l -0.619469,7.265487 c -0.04706,0.551997 -0.137316,1.01015 -0.690266,1.044248 L 11.079646,21 H 2 C 1.446,21 1,20.554 1,20 V 2 C 1,1.446 1.446,1 2,1 Z"/>
 <path style="opacity:0.1;fill:#ffffff" d="M 2,1 C 1.446,1 1,1.446 1,2 v 0.5 c 0,-0.554 0.446,-1 1,-1 h 18 c 0.554,0 1,0.446 1,1 V 2 C 21,1.446 20.554,1 20,1 Z"/>
 <path style="opacity:0.2" d="m 2,2.5 v 8 h 3 v -5 h 2 v 5 h 3 v -6 c 0,-2 -2,-2 -2,-2 z m 0,10 v 8 h 6 c 0,0 2,0 2,-2 v -6 H 7 v 5 H 5 v -5 z"/>
 <path style="fill:#edd20c" d="m 2,2 v 8 H 5 V 5 h 2 v 5 h 3 V 4 C 10,2 8,2 8,2 Z m 0,10 v 8 h 6 c 0,0 2,0 2,-2 V 12 H 7 v 5 H 5 v -5 z"/>
 <path style="opacity:0.2" d="m 11,1.5 v 9 h 2.111328 L 14,2.5 h 4 l 0.888672,8 H 21 v -8 c 0,-0.554 -0.446,-1 -1,-1 z m 5,5 -0.285156,4 h 0.570312 z m -5,6 V 20 h 1.054688 l 0.833984,-7.5 z m 4.570312,0 -0.142578,2 h 1.144532 l -0.142578,-2 z m 3.541016,0 0.833984,7.5 H 21 v -7.5 z m -3.896484,5 -0.179688,2.5 h 1.929688 l -0.179688,-2.5 z"/>
 <path style="fill:#e4e4e4" d="m 11,1 v 9 h 2.111328 L 14,2 h 4 l 0.888672,8 H 21 V 2 C 21,1.446 20.554,1 20,1 Z m 5,5 -0.285156,4 h 0.570312 z m -5,6 v 9 h 9 c 0.554,0 1,-0.446 1,-1 V 12 H 19.111328 L 20,20 H 17 L 16.785156,17 H 15.214844 L 15,20 h -3 l 0.888672,-8 z m 4.570312,0 -0.142578,2 h 1.144532 l -0.142578,-2 z"/>
 <path style="opacity:0.2;fill:#ffffff" d="m 11,1 v 0.5 h 9 c 0.554,0 1,0.446 1,1 V 2 C 21,1.446 20.554,1 20,1 Z m 5,5 -0.285156,4 H 15.75 L 16,6.5 16.25,10 h 0.03516 z m -5,6 v 0.5 h 1.833984 l 0.05469,-0.5 z m 4.570312,0 -0.142578,2 h 0.03516 l 0.107421,-1.5 h 0.859376 l 0.107421,1.5 h 0.03516 l -0.142578,-2 z m 3.541016,0 0.05469,0.5 H 21 V 12 Z M 15.214844,17 15,20 H 12.054688 L 12,20.5 h 3 l 0.214844,-3 h 1.570312 L 17,20.5 h 3 L 19.945312,20 H 17 l -0.214844,-3 z"/>
 <path style="opacity:0.2;fill:#ffffff" d="m 2,2 v 0.5 h 6 c 0,0 2,0 2,2 V 4 C 10,2 8,2 8,2 Z m 0,10 v 0.5 H 5 V 12 Z m 5,0 v 0.5 h 3 V 12 Z m -2,5 v 0.5 H 7 V 17 Z"/>
</svg>
